contributed-vectors/mi_scanner.svg

<svg width="192" height="192" viewBox="0 0 192 192" fill="none" xmlns="http://www.w3.org/2000/svg">
<g clip-path="url(#clip0)">
<path d="M172.6 29.5V163.1C172.6 168.4 168.3 172.6 163.1 172.6H29.5C24.2 172.6 20 168.3 20 163.1V29.5C20 24.3 24.3 20 29.5 20H163.1C168.4 20 172.6 24.3 172.6 29.5Z" fill="#56595B"/>
<path d="M62.5959 99.1469H129.604C131.202 99.1469 132.6 97.8487 132.6 96.151C132.6 94.4533 131.302 93.1551 129.604 93.1551H62.5959C60.9981 93.1551 59.6 94.4533 59.6 96.151C59.6 97.8487 60.9981 99.1469 62.5959 99.1469Z" fill="white"/>
<path d="M129.604 105.938C127.906 105.938 126.608 107.236 126.608 108.934V123.514C126.608 125.011 125.41 126.31 123.812 126.31H96.15H68.4879C66.9899 126.31 65.6917 125.111 65.6917 123.514V108.834C65.6917 107.236 64.3935 105.838 62.6958 105.838C61.098 105.838 59.6999 107.136 59.6999 108.834V125.511C59.6999 129.106 62.6958 132.102 66.2909 132.102H96.15H126.009C129.604 132.102 132.6 129.106 132.6 125.511V108.834C132.6 107.236 131.202 105.938 129.604 105.938Z" fill="white"/>
<path d="M126.009 60.4H96.1501H66.291C62.6959 60.4 59.7 63.3959 59.7 66.991V83.6681C59.7 85.2659 60.9982 86.664 62.6959 86.664C64.2937 86.664 65.6918 85.3658 65.6918 83.6681V69.0881C65.6918 67.5901 66.8902 66.2919 68.488 66.2919H96.1501H123.812C125.31 66.2919 126.608 67.4903 126.608 69.0881V83.6681C126.608 85.2659 127.907 86.664 129.604 86.664C131.202 86.664 132.6 85.3658 132.6 83.6681V66.991C132.6 63.296 129.604 60.4 126.009 60.4Z" fill="white"/>
</g>
<defs>
<clipPath id="clip0">
<rect width="192" height="192" fill="white"/>
</clipPath>
</defs>
</svg>

<svg xmlns="http://www.w3.org/2000/svg" width="192" height="192" fill="none"><g clip-path="url(#a)"><path fill="#56595B" d="M172.6 29.5v133.6c0 5.3-4.3 9.5-9.5 9.5H29.5c-5.3 0-9.5-4.3-9.5-9.5V29.5c0-5.2 4.3-9.5 9.5-9.5h133.6c5.3 0 9.5 4.3 9.5 9.5Z"/><path fill="#fff" d="M62.596 99.147h67.008c1.598 0 2.996-1.298 2.996-2.996s-1.298-2.996-2.996-2.996H62.596c-1.598 0-2.996 1.298-2.996 2.996s1.398 2.996 2.996 2.996ZM129.604 105.938c-1.698 0-2.996 1.298-2.996 2.996v14.58a2.791 2.791 0 0 1-2.796 2.796H68.488a2.792 2.792 0 0 1-2.796-2.796v-14.68c0-1.598-1.298-2.996-2.996-2.996-1.598 0-2.996 1.298-2.996 2.996v16.677c0 3.595 2.996 6.591 6.59 6.591h59.719c3.595 0 6.591-2.996 6.591-6.591v-16.677c0-1.598-1.398-2.896-2.996-2.896ZM126.009 60.4H66.291c-3.595 0-6.591 2.996-6.591 6.591v16.677c0 1.598 1.298 2.996 2.996 2.996 1.598 0 2.996-1.298 2.996-2.996v-14.58a2.791 2.791 0 0 1 2.796-2.796h55.324a2.791 2.791 0 0 1 2.796 2.796v14.58c0 1.598 1.299 2.996 2.996 2.996 1.598 0 2.996-1.298 2.996-2.996V66.991c0-3.695-2.996-6.591-6.591-6.591Z"/></g><defs><clipPath id="a"><path fill="#fff" d="M0 0h192v192H0z"/></clipPath></defs></svg>
